client/public/icons/favicon.svg

<svg xmlns="http://www.w3.org/2000/svg" viewBox="-0.7 0 25 25"><path d="M11.6 24.747C3.867 24.72.213 22.32.4 16.507h6.64c.08 1.52 1.36 2.453 4.56 2.48 2.827.026 4.133-.774 4.133-1.814 0-.72-.4-1.466-2.586-1.786l-2.88-.454C6.027 14.24.933 13.733.933 8c0-4.427 3.6-7.147 10.72-7.147C18.08.853 22.56 2.64 22.427 9.04H15.84c-.267-1.493-1.52-2.427-4.347-2.427-2.453 0-3.466.747-3.466 1.76 0 .64.4 1.414 2.106 1.68l2.374.4c4.453.747 10.56.88 10.56 7.014 0 4.88-3.787 7.306-11.467 7.28"/></svg>

<?xml version="1.0" encoding="utf-8"?>
<svg viewBox="-0.7 0 25 25" xmlns="http://www.w3.org/2000/svg">
  <path d="M 11.6 24.747 C 3.867 24.72 0.213 22.32 0.4 16.507 L 7.04 16.507 C 7.12 18.027 8.4 18.96 11.6 18.987 C 14.427 19.013 15.733 18.213 15.733 17.173 C 15.733 16.453 15.333 15.707 13.147 15.387 L 10.267 14.933 C 6.027 14.24 0.933 13.733 0.933 8 C 0.933 3.573 4.533 0.853 11.653 0.853 C 18.08 0.853 22.56 2.64 22.427 9.04 L 15.84 9.04 C 15.573 7.547 14.32 6.613 11.493 6.613 C 9.04 6.613 8.027 7.36 8.027 8.373 C 8.027 9.013 8.427 9.787 10.133 10.053 L 12.507 10.453 C 16.96 11.2 23.067 11.333 23.067 17.467 C 23.067 22.347 19.28 24.773 11.6 24.747 Z" fill="black" transform="matrix(0.9999999999999999, 0, 0, 0.9999999999999999, -8.881784197001252e-16, 0)"/>
</svg>
